Sweet-Rainbow/icons/kmenuedit.svg

<?xml version="1.0" encoding="UTF-8" standalone="no"?>
<!-- Generator: Gravit.io -->

<svg
   xmlns:dc="http://purl.org/dc/elements/1.1/"
   xmlns:cc="http://creativecommons.org/ns#"
   xmlns:rdf="http://www.w3.org/1999/02/22-rdf-syntax-ns#"
   xmlns:svg="http://www.w3.org/2000/svg"
   xmlns="http://www.w3.org/2000/svg"
   xmlns:sodipodi="http://sodipodi.sourceforge.net/DTD/sodipodi-0.dtd"
   xmlns:inkscape="http://www.inkscape.org/namespaces/inkscape"
   style="isolation:isolate"
   viewBox="0 0 48 48"
   width="48"
   height="48"
   version="1.1"
   id="svg64"
   sodipodi:docname="kmenuedit.svg"
   inkscape:version="0.92.4 (5da689c313, 2019-01-14)">
  <metadata
     id="metadata68">
    <rdf:RDF>
      <cc:Work
         rdf:about="">
        <dc:format>image/svg+xml</dc:format>
        <dc:type
           rdf:resource="http://purl.org/dc/dcmitype/StillImage" />
        <dc:title></dc:title>
      </cc:Work>
    </rdf:RDF>
  </metadata>
  <sodipodi:namedview
     pagecolor="#ffffff"
     bordercolor="#666666"
     borderopacity="1"
     objecttolerance="10"
     gridtolerance="10"
     guidetolerance="10"
     inkscape:pageopacity="0"
     inkscape:pageshadow="2"
     inkscape:window-width="640"
     inkscape:window-height="480"
     id="namedview66"
     showgrid="false"
     inkscape:zoom="39.153656"
     inkscape:cx="18.994082"
     inkscape:cy="24"
     inkscape:current-layer="svg64" />
  <linearGradient
     id="_lgradient_24"
     x1="0"
     y1="0.5"
     x2="1"
     y2="0.5"
     gradientTransform="matrix(4,0,0,4,8,22)"
     gradientUnits="userSpaceOnUse">
    <stop
       offset="0%"
       stop-opacity="1"
       style="stop-color:rgb(132,250,176)"
       id="stop2" />
    <stop
       offset="98.26086956521739%"
       stop-opacity="1"
       style="stop-color:rgb(143,211,244)"
       id="stop4" />
  </linearGradient>
  <linearGradient
     id="_lgradient_25"
     x1="0"
     y1="0.5"
     x2="1"
     y2="0.5"
     gradientTransform="matrix(4,0,0,4,8,31)"
     gradientUnits="userSpaceOnUse">
    <stop
       offset="0%"
       stop-opacity="1"
       style="stop-color:rgb(132,250,176)"
       id="stop9" />
    <stop
       offset="98.26086956521739%"
       stop-opacity="1"
       style="stop-color:rgb(143,211,244)"
       id="stop11" />
  </linearGradient>
  <linearGradient
     id="_lgradient_26"
     x1="0"
     y1="0.5"
     x2="1"
     y2="0.5"
     gradientTransform="matrix(7,0,0,8.174,8,10.59)"
     gradientUnits="userSpaceOnUse">
    <stop
       offset="0%"
       stop-opacity="1"
       style="stop-color:rgb(132,250,176)"
       id="stop16" />
    <stop
       offset="98.26086956521739%"
       stop-opacity="1"
       style="stop-color:rgb(143,211,244)"
       id="stop18" />
  </linearGradient>
  <linearGradient
     id="_lgradient_27"
     x1="0"
     y1="0.5"
     x2="1"
     y2="0.5"
     gradientTransform="matrix(41,0,0,35.391,2,10.609)"
     gradientUnits="userSpaceOnUse">
    <stop
       offset="0%"
       stop-opacity="1"
       style="stop-color:rgb(132,250,176)"
       id="stop23" />
    <stop
       offset="98.26086956521739%"
       stop-opacity="1"
       style="stop-color:rgb(143,211,244)"
       id="stop25" />
  </linearGradient>
  <linearGradient
     id="_lgradient_28"
     x1="0"
     y1="0.5"
     x2="1"
     y2="0.5"
     gradientTransform="matrix(41,0,0,35.391,5,2)"
     gradientUnits="userSpaceOnUse">
    <stop
       offset="0%"
       stop-opacity="1"
       style="stop-color:rgb(132,250,176)"
       id="stop30" />
    <stop
       offset="98.26086956521739%"
       stop-opacity="1"
       style="stop-color:rgb(143,211,244)"
       id="stop32" />
  </linearGradient>
  <defs
     id="defs42">
    <linearGradient
       id="_lgradient_29"
       x1="7.6104441"
       y1="33.694225"
       x2="16.489294"
       y2="33.694225"
       gradientTransform="scale(2.3651708,0.42280244)"
       gradientUnits="userSpaceOnUse">
      <stop
         offset="0%"
         style="stop-color:#84FAB0"
         id="stop37" />
      <stop
         offset="98.26086956521739%"
         style="stop-color:#8FD3F4"
         id="stop39" />
    </linearGradient>
  </defs>
  <defs
     id="defs51">
    <linearGradient
       id="_lgradient_30"
       x1="7.6104441"
       y1="57.055016"
       x2="16.489294"
       y2="57.055016"
       gradientTransform="scale(2.3651708,0.42280244)"
       gradientUnits="userSpaceOnUse">
      <stop
         offset="0%"
         style="stop-color:#84FAB0"
         id="stop46" />
      <stop
         offset="98.26086956521739%"
         style="stop-color:#8FD3F4"
         id="stop48" />
    </linearGradient>
  </defs>
  <defs
     id="defs60">
    <linearGradient
       id="_lgradient_31"
       x1="7.6104441"
       y1="78.341553"
       x2="16.489294"
       y2="78.341553"
       gradientTransform="scale(2.3651708,0.42280244)"
       gradientUnits="userSpaceOnUse">
      <stop
         offset="0%"
         style="stop-color:#84FAB0"
         id="stop55" />
      <stop
         offset="98.26086956521739%"
         style="stop-color:#8FD3F4"
         id="stop57" />
    </linearGradient>
  </defs>
  <g
     id="g883"
     transform="matrix(1.0909091,0,0,1.0909091,-2.1818184,-2.1818184)">
    <circle
       id="circle7"
       r="2"
       cy="24"
       cx="10"
       style="vector-effect:non-scaling-stroke;fill:url(#_lgradient_24)" />
    <circle
       id="circle14"
       r="2"
       cy="33"
       cx="10"
       style="vector-effect:non-scaling-stroke;fill:url(#_lgradient_25)" />
    <path
       id="path21"
       d="m 13.235,11.173 v 0 c 0.327,-0.322 0.854,-0.32 1.178,0.004 v 0 c 0.324,0.324 0.326,0.851 0.004,1.178 v 0 l -4.65,4.644 C 8.792,17.973 8,17.645 8,16.267 v -2.006 0 c 0,-0.46 0.373,-0.833 0.832,-0.833 v 0 c 0.46,0 0.833,0.373 0.833,0.833 v 0 0.491 z"
       inkscape:connector-curvature="0"
       style="fill:url(#_lgradient_26)" />
    <path
       id="path28"
       d="m 41.17,42.174 v 0 c 1.01,0 1.83,0.857 1.83,1.913 v 0 C 43,45.143 42.18,46 41.17,46 v 0 H 8.548 C 4.934,46 2,43.066 2,39.452 v -26.93 0 c 0,-1.056 0.82,-1.913 1.83,-1.913 v 0 c 1.01,0 1.83,0.857 1.83,1.913 v 0 26.845 c 0,1.549 1.257,2.807 2.806,2.807 z"
       inkscape:connector-curvature="0"
       style="fill:url(#_lgradient_27)" />
    <path
       id="path35"
       d="m 6.83,5.826 v 0 C 5.82,5.826 5,4.969 5,3.913 v 0 C 5,2.857 5.82,2 6.83,2 V 2 H 39.452 C 43.066,2 46,4.934 46,8.548 v 26.93 0 c 0,1.056 -0.82,1.913 -1.83,1.913 v 0 c -1.01,0 -1.83,-0.857 -1.83,-1.913 v 0 -24.974 c 0,-2.582 -2.096,-4.678 -4.677,-4.678 z"
       inkscape:connector-curvature="0"
       style="fill:url(#_lgradient_28)" />
    <path
       id="path44"
       style="fill:url(#_lgradient_29);stroke:none;stroke-miterlimit:10"
       d="m 19.877,12.369 h 17.246 c 1.036,0 1.877,0.841 1.877,1.877 v 0 c 0,1.036 -0.841,1.877 -1.877,1.877 H 19.877 C 18.841,16.123 18,15.282 18,14.246 v 0 c 0,-1.036 0.841,-1.877 1.877,-1.877 z"
       inkscape:connector-curvature="0" />
    <path
       id="path53"
       style="fill:url(#_lgradient_30);stroke:none;stroke-miterlimit:10"
       d="m 19.877,22.246 h 17.246 c 1.036,0 1.877,0.841 1.877,1.877 v 0 C 39,25.159 38.159,26 37.123,26 H 19.877 C 18.841,26 18,25.159 18,24.123 v 0 c 0,-1.036 0.841,-1.877 1.877,-1.877 z"
       inkscape:connector-curvature="0" />
    <path
       id="path62"
       style="fill:url(#_lgradient_31);stroke:none;stroke-miterlimit:10"
       d="m 19.877,31.246 h 17.246 c 1.036,0 1.877,0.841 1.877,1.877 v 0 C 39,34.159 38.159,35 37.123,35 H 19.877 C 18.841,35 18,34.159 18,33.123 v 0 c 0,-1.036 0.841,-1.877 1.877,-1.877 z"
       inkscape:connector-curvature="0" />
  </g>
</svg>

<?xml version="1.0" standalone="no"?><!-- Generator: Gravit.io --><svg xmlns="http://www.w3.org/2000/svg" xmlns:xlink="http://www.w3.org/1999/xlink" style="isolation:isolate" viewBox="0 0 48 48" width="48" height="48"><linearGradient id="_lgradient_24" x1="0" y1="0.5" x2="1" y2="0.5" gradientTransform="matrix(4,0,0,4,8,22)" gradientUnits="userSpaceOnUse"><stop offset="0%" stop-opacity="1" style="stop-color:rgb(132,250,176)"/><stop offset="98.26086956521739%" stop-opacity="1" style="stop-color:rgb(143,211,244)"/></linearGradient><circle vector-effect="non-scaling-stroke" cx="10" cy="24" r="2" fill="url(#_lgradient_24)"/><linearGradient id="_lgradient_25" x1="0" y1="0.5" x2="1" y2="0.5" gradientTransform="matrix(4,0,0,4,8,31)" gradientUnits="userSpaceOnUse"><stop offset="0%" stop-opacity="1" style="stop-color:rgb(132,250,176)"/><stop offset="98.26086956521739%" stop-opacity="1" style="stop-color:rgb(143,211,244)"/></linearGradient><circle vector-effect="non-scaling-stroke" cx="10" cy="33" r="2" fill="url(#_lgradient_25)"/><linearGradient id="_lgradient_26" x1="0" y1="0.5" x2="1" y2="0.5" gradientTransform="matrix(7,0,0,8.174,8,10.59)" gradientUnits="userSpaceOnUse"><stop offset="0%" stop-opacity="1" style="stop-color:rgb(132,250,176)"/><stop offset="98.26086956521739%" stop-opacity="1" style="stop-color:rgb(143,211,244)"/></linearGradient><path d=" M 13.235 11.173 L 13.235 11.173 C 13.562 10.851 14.089 10.853 14.413 11.177 L 14.413 11.177 C 14.737 11.501 14.739 12.028 14.417 12.355 L 14.417 12.355 L 9.767 16.999 C 8.792 17.973 8 17.645 8 16.267 L 8 14.261 L 8 14.261 C 8 13.801 8.373 13.428 8.832 13.428 L 8.832 13.428 C 9.292 13.428 9.665 13.801 9.665 14.261 L 9.665 14.261 L 9.665 14.752 L 13.235 11.173 Z " fill="url(#_lgradient_26)"/><linearGradient id="_lgradient_27" x1="0" y1="0.5" x2="1" y2="0.5" gradientTransform="matrix(41,0,0,35.391,2,10.609)" gradientUnits="userSpaceOnUse"><stop offset="0%" stop-opacity="1" style="stop-color:rgb(132,250,176)"/><stop offset="98.26086956521739%" stop-opacity="1" style="stop-color:rgb(143,211,244)"/></linearGradient><path d=" M 41.17 42.174 L 41.17 42.174 C 42.18 42.174 43 43.031 43 44.087 L 43 44.087 C 43 45.143 42.18 46 41.17 46 L 41.17 46 L 8.548 46 C 4.934 46 2 43.066 2 39.452 L 2 12.522 L 2 12.522 C 2 11.466 2.82 10.609 3.83 10.609 L 3.83 10.609 C 4.84 10.609 5.66 11.466 5.66 12.522 L 5.66 12.522 L 5.66 39.367 C 5.66 40.916 6.917 42.174 8.466 42.174 L 41.17 42.174 Z " fill="url(#_lgradient_27)"/><linearGradient id="_lgradient_28" x1="0" y1="0.5" x2="1" y2="0.5" gradientTransform="matrix(41,0,0,35.391,5,2)" gradientUnits="userSpaceOnUse"><stop offset="0%" stop-opacity="1" style="stop-color:rgb(132,250,176)"/><stop offset="98.26086956521739%" stop-opacity="1" style="stop-color:rgb(143,211,244)"/></linearGradient><path d=" M 6.83 5.826 L 6.83 5.826 C 5.82 5.826 5 4.969 5 3.913 L 5 3.913 C 5 2.857 5.82 2 6.83 2 L 6.83 2 L 39.452 2 C 43.066 2 46 4.934 46 8.548 L 46 35.478 L 46 35.478 C 46 36.534 45.18 37.391 44.17 37.391 L 44.17 37.391 C 43.16 37.391 42.34 36.534 42.34 35.478 L 42.34 35.478 L 42.34 10.504 C 42.34 7.922 40.244 5.826 37.663 5.826 L 6.83 5.826 Z " fill="url(#_lgradient_28)"/><defs><linearGradient id="_lgradient_29" x1="0" y1="0.5" x2="1" y2="0.5"><stop offset="0%" style="stop-color:#84FAB0"/><stop offset="98.26086956521739%" style="stop-color:#8FD3F4"/></linearGradient></defs><path d="M 19.877 12.369 L 37.123 12.369 C 38.159 12.369 39 13.21 39 14.246 L 39 14.246 C 39 15.282 38.159 16.123 37.123 16.123 L 19.877 16.123 C 18.841 16.123 18 15.282 18 14.246 L 18 14.246 C 18 13.21 18.841 12.369 19.877 12.369 Z" style="stroke:none;fill:url(#_lgradient_29);stroke-miterlimit:10;"/><defs><linearGradient id="_lgradient_30" x1="0" y1="0.5" x2="1" y2="0.5"><stop offset="0%" style="stop-color:#84FAB0"/><stop offset="98.26086956521739%" style="stop-color:#8FD3F4"/></linearGradient></defs><path d="M 19.877 22.246 L 37.123 22.246 C 38.159 22.246 39 23.087 39 24.123 L 39 24.123 C 39 25.159 38.159 26 37.123 26 L 19.877 26 C 18.841 26 18 25.159 18 24.123 L 18 24.123 C 18 23.087 18.841 22.246 19.877 22.246 Z" style="stroke:none;fill:url(#_lgradient_30);stroke-miterlimit:10;"/><defs><linearGradient id="_lgradient_31" x1="0" y1="0.5" x2="1" y2="0.5"><stop offset="0%" style="stop-color:#84FAB0"/><stop offset="98.26086956521739%" style="stop-color:#8FD3F4"/></linearGradient></defs><path d="M 19.877 31.246 L 37.123 31.246 C 38.159 31.246 39 32.087 39 33.123 L 39 33.123 C 39 34.159 38.159 35 37.123 35 L 19.877 35 C 18.841 35 18 34.159 18 33.123 L 18 33.123 C 18 32.087 18.841 31.246 19.877 31.246 Z" style="stroke:none;fill:url(#_lgradient_31);stroke-miterlimit:10;"/></svg>
